X:1
T:Title
%%score [ 1 2 3 4 ]
L:1/8
Q:1/4=120
M:2/2
K:F
V:1 treble nm="S."
V:2 treble nm="S."
V:3 treble-8 nm="T."
V:4 bass nm="B."
V:1
 B2 AB c2 G2 | A4 d2 d"^Lady, when I behold"d | _e2 c2 d4- | d2"^John Wilbye" d2 c2 B2 | %4
w: La- dy, when I be-|hold, la- dy, when|I be- hold|* the ro- ses|
 B2 A2 B2 B2 | A2 G2 ^F4 | G8 | d2 dd _e2 c2 | d4 B2 AB | c2 G2 A4- | A2 B2 A2 B2 | c4 d2 d2 | %12
w: sprout * ing, the|ro- ses sprout-|ing,|la- dy, when I be-|hold, la- dy, when|I be- hold|* the ro- ses|sprout- ing, the|
 c2 B2 A4 | =B4 d4 | _e2 d2 c2 =B2 | c2 d2 c2 c2- |"^___" c2 =B2 c2 d2 | _e2 d2"^- 2 -" c2 =B2 | %18
w: ro- ses sprout-|ing, Which|clad in da- mask|man- tles deck the|* ar- bours, which|clad in da- mask|
 c2 d2 c4- | c2 B2 A4 | G4 z2 B2 | B2 B2 A2 F2 | A6 A2 | A2 A2 G2 G2 | G6 G2 | G2 G2 F2 D2 | %26
w: man- tles deck|* the ar-|bours, And|then be- hold your|lips, and|then be- hold your|lips, and|then be- hold your|
 F6 E2 | D4 E4 | ^F2 G4 F2 | G2 G2 d4- | d2 d2 d2 d2 | B3 c d2 d2 | d2 B2 A4 | B2 G2 F3"^- 3 -" B | %34
w: lips, where|sweet Love|har * *|bours, My eyes|* pre- sents me|with a dou- ble,|dou- ble doubt-|ing, a dou- ble|
 A2 G2 G2 ^F2 | G4 z2 D2 | G2 G2 B3 A | G2 G2 F2 G2 | A2 F2 F4 | F8 | F2 F2- FG A2 | D3 E F2 D2 | %42
w: dou- ble doubt *|\-ing, my|eyes pre- sents me|with a dou- ble,|dou- ble doubt-|ing.|For, view * * ing|both a- like, hard-|
 G6 F2 | G2 A2 B4 | A2 B4 A2 | B8 | z8 | A2 AG F2 A2 | G2 D2 G2 GG | ^F2 D2 F2 F2 | z8 | %51
w: ly my|mind * sup-|po * *|ses||Whe- ther the ro- ses|be your lips, or your|lips the ro- ses,||
 f2 f_e d2 c2 | d3 e f2"^- 4 -" dd | c2 B2 A4 | =B8 | z2 d2 d2 c2 | B4 d4 | c4 B4 | _e4 d4 | %59
w: whe- ther the ro- ses|be your lips, or your|lips the ro-|ses,|For, view- ing|both a-|like, hard-|ly my|
 c2 B2 c4 | d8 | z8 | c2 cB A2 c2 | B2 G2 B2 BB | A2 ^F2 A2 A2 | z8 | d2 dc B2 A2 | B3 c d2 BB | %68
w: mind sup- po-|ses||Whe- ther the ro- ses|be your lips, or your|lips the ro- ses,||whe- ther the ro- ses|be your lips, or your|
 A2 G2 ^F4 | G8 |] %70
w: lips the ro-|ses.|
V:2
 d2 dd _e2 c2 | d4 B2 AB | c2 G2 A4- | A2 B2 A2 B2 | c4 d2 d2 | c2 B2 A4 | =B8 | %7
w: La- dy, when I be-|hold, la- dy, when|I be- hold|* the ro- ses|sprout- ing, the|ro- ses sprout-|ing,|
 !courtesy!_B2 AB c2 G2 | A4 d2 dd | _e2 c2 d4- | d2 d2 c2 B2 | B2 A2 B2 B2 | A2 G2 ^F4 | G6 =B2 | %14
w: la- dy, when I be-|hold, la- dy, when|I be- hold|* the ro- ses|sprout * ing, the|ro- ses sprout-|ing, Which|
 c2 d2 _e2 d2 | c2 G2 G2 G2 | G4 G2 =B2 | c2 d2 _e2 d2 | c2 G2 G2 A2 | ^F2 G4 F2 | G8 | %21
w: clad in da- mask|man- tles deck the|ar- bours, which|clad in da- mask|man- tles deck the|ar * *|bours,|
 z2 d2 d2 d2 | c2 A2 c4- | c2 c2 c2 c2 | B2 G2 B4- | B2 B2 B2 B2 | A2 F2 A4- | A2 G4 c2- | %28
w: And then be-|hold your lips,|* and then be-|hold your lips,|* and then be-|hold your lips,|* where sweet|
"^__" c2 B2 A4 | =B4 z2 D2 | G2 G2 B3 A | G2 G2 F2 G2 | A2 d2 d4 | d2 B2 A3 d | c3 B A4 | %35
w: * Love har-|bours, My|eyes pre- sents me|with a dou- ble,|dou- ble doubt-|ing, a dou- ble,|dou- ble doubt-|
 B2 G2 d4- | d2 d2 d2 d2 | B3 c d2 B2 | A2 B4 A2 | B8 | z2 d2 d2 c2 | B4 d4 | c4 B4 | _e4 d4 | %44
w: ing, my eyes|* pre- sents me|with a dou- ble,|dou- ble doubt-|ing.|For, view- ing|both a-|like, hard-|ly my|
 c2 B2 c4 | d8 | z8 | c2 cB A2 c2 | B2 G2 B2 BB | A2 ^F2 A2 A2 | z8 | d2 dc B2 A2 | B3 c d2 BB | %53
w: mind sup- po-|ses||Whe- ther the ro- ses|be your lips, or your|lips the ro- ses,||whe- ther the ro- ses|be your lips, or your|
 A2 G2 ^F4 | G8 | F2 F2- FG A2 | D3 E F2 D2 | G6 F2 | G2 A2 B4 | A2 B4 A2 | B8 | z8 | A2 AG F2 A2 | %63
w: lips the ro-|ses,|For, view * * ing|both a- like, hard-|ly my|mind * sup-|po * *|ses||Whe- ther the ro- ses|
 G2 D2 G2 GG | ^F2 D2 F2 F2 | z8 | f2 f_e d2 c2 | d3 e f2 dd | c2 B2 A4 | =B8 |] %70
w: be your lips, or your|lips the ro- ses,||whe- ther the ro- ses|be your lips, or your|lips the ro-|ses.|
V:3
 g2 ^fg c2 _e2 | d4 z4 | z8 | z2 f2 f2 d2 | f2 cc Bcde | f2 g2 d4 | G8 | z8 | z4 g2 ^fg | %9
w: La- dy, when I be-|hold||the ro- ses|sprout- ing, the ro * * *|* ses sprout-|ing,||la- dy, when|
 c2 _e2 d4- | d2 B2 f2 g2 | f4 f2 f2 | f2 d2 d4 | d4 g4 | g2 g2 g2 g2 | g3 f _e2 e2 | d4 _e2 g2 | %17
w: I be- hold|* the ro- ses|sprout- ing, the|ro- ses sprout-|ing, Which|clad in da- mask|man- tles deck the|ar- bours, which|
 g2 g2 g2 g2 | g3 f _e2 e2 | d8 | d6 g2 | g2 g2 f2 d2 | f6 f2 | f2 f2 _e2 c2 | _e6 e2 | %25
w: clad in da- mask|man- tles deck the|ar-|bours, And|then be- hold your|lips, and|then be- hold your|lips, and|
 _e2 e2 d2 B2 | d6 A2 | B4 c4 | d8 | d8 | z2 B2 d2 d2 | d2 d2 d3 e | ^f2 g2 g2 f2 | g2 GG d3 B | %34
w: then be- hold your|lips, where|sweet Love|har-|bours,|My eyes pre-|sents me with a|doub- ble, dou- ble|doubt- ing, a dou- ble,|
 c2 c2 d4 | d6 d2 | d2 B2 d2 d2 | d2 d2 d3 e | f2 d2 c4 | d8 | c2 d2- de f2 | B4 A4 | G6 d2 | %43
w: dou- ble doubt-|ing, my|eyes pre- sents me|with a dou- ble,|dou- ble doubt-|ing.|For, view * * ing|both a-|like, hard-|
 _e4 f4 | f2 d2 f4 | f4 f2 f_e | d2 f2 _e2 d2 | c6 fe | d6 d2 | d8 | c4 f2 f_e | d2 B2 f2 f2 | %52
w: ly my|mind su- po-|ses Whe- ther the|ro- ses be your|lips, or your|lips the|ro-|ses, whe- ther the|ro- ses be your|
 f6 ff | f2 d2 d4 | d8 | c2 d2- de f2 | B4 A4 | G6 d2 | _e4 f4 | f2 d2 f4 | f4 f2 f_e | %61
w: lips, or your|lips the ro-|ses,|For, view * * ing|both a-|like, hard-|ly my|mind su- po-|ses Whe- ther the|
 d2 f2 _e2 d2 | c6 fe | d6 d2 | d8 | c4 f2 f_e | d2 B2 f2 f2 | f6 ff | f2 d2 d4 | d8 |] %70
w: ro- ses be your|lips, or your|lips the|ro-|ses, whe- ther the|ro- ses be your|lips, or your|lips the ro-|ses.|
V:4
 z8 | z4 G,2 ^F,G, | C,2 _E,2 D,4- | D,2 B,,2 F,2 G,2 | F,4 B,,4 | z8 | z8 | G,2 ^F,G, C,2 _E,2 | %8
w: |La- dy, when|I be- hold|* the ro- ses|sprout- ing,|||la- dy, when I be-|
 D,4 z4 | z8 | z8 | z2 F,2 B,,C,D,E, |"^___""^This edition  Andrew Sims 2004" F,2 G,2 D,4 | %13
w: hold|||the ro * * *|* ses sprout-|
 G,6 G,2 | C2 =B,2 C2 G,2 | C,2 =B,,2 C,2 C,2 | G,4 C,2 G,2 | C2 =B,2 C2 G,2 | C,2 =B,,2 C,2 C,2 | %19
w: ing, Which|clad in da- mask|man- tles deck the|ar- bours, which|clad in da- mask|man- tles deck the|
 D,8 | G,8- | G,4 z4 | z8 | z8 | z8 | z8 | z8 | z8 | z4 z2 D,2 | G,6 G,2 | G,2 G,2 G,2 ^F,2 | %31
w: ar-|bours,||||||||My|eyes pre-|sents me with a|
 G,3 A, B,2 G,2 | D,8 | G,4 z4 | z4 z2 D,2 | G,6 G,2 | G,2 G,2 G,2 ^F,2 | G,3 A, B,2 G,2 | F,8 | %39
w: dou- ble, dou- ble|doubt-|ing,|my|eyes pre-|sents me with a|dou- ble, dou- ble|doubt-|
 B,8 | A,2 B,4 F,2 | G,4 D,4 | _E,6 D,2 | C,4 B,,4 | F,2 G,2 F,4 | B,,8 | B,2 B,A, G,2 B,2 | F,8 | %48
w: ing.|For, view- ing|both a-|like, hard-|ly my|mind sup- po-|ses|Whe- ther the ro- ses|be|
 G,8 | D,8 | F,2 F,_E, D,2 F,2 | B,,6 F,2 | B,,6 B,,B,, | F,2 G,2 D,4 | G,8 | A,2 B,4 F,2 | %56
w: your|lips,|whe- ther the ro- ses|be your|lips, or your|lips the ro-|ses,|For, view- ing|
 G,4 D,4 | _E,6 D,2 | C,4 B,,4 | F,2 G,2 F,4 | B,,8 | B,2 B,A, G,2 B,2 | F,8 | G,8 | D,8 | %65
w: both a-|like, hard-|ly my|mind sup- po-|ses|Whe- ther the ro- ses|be|your|lips,|
 F,2 F,_E, D,2 F,2 | B,,6 F,2 | B,,6 B,,B,, | F,2 G,2 D,4 | G,8 |] %70
w: whe- ther the ro- ses|be your|lips, or your|lips the ro-|ses.|

